X:1
T:Title
%%score ( 1 2 ) { 3 | 4 }
L:1/8
Q:1/4=120
M:4/4
K:Ab
V:1 treble nm="Grand Piano, Soprano"
V:2 treble 
V:3 treble nm="Grand Piano, Bass"
V:4 bass 
V:1
 z4 z2 [CE]>[CE] | [EA]2 [EA]2 [EA]2 [Ec]>[EB] | [EA]2 [EA]2 [CE]2 [Ec]>[Ed] | %3
w: 1.~We~ have~|met~ to day~ on~ the~|old~ camp ground,~ And~ our~|
 [Ee]2 [Ac]2 [Bd]2 [Ac]2 | G6 z2 | [CA]2 [EA]2 [EA]2 [Ec]>[EB] | [EA]2 [EA]2 [CE]2 [Ec]>[Ed] | %7
w: hearts,~ O~ God,~ o'er|flow~|songs~ of~ joy,~ and~ a~|stream~ of~ thanks~ For~ the~|
 [Ee]2 dB [EA]2 [EG]2 | [EA]6 [Ec]>[Ed] | e2- [Ee]4 [Ac]>[EB] | [EA]6 [EB]>[EA] | %11
w: love~ Thou~ * dost~ be|stow.~ * *|||
 [EG]2 [Ge]2 [Ge]2 [A=d]2 | e2- [Ae-]2 [Be]2 E[DE] | z4 .A2 z2 | [Ae]>[Ed] [Ec][EB] [EA][CE]CD | %15
w: ||||
 E2 [Ec][FB] [EA]2 [EG]2 | [EA]6 z2 |] %17
w: ||
V:2
 x8 | x8 | x8 | x8 | B4 e2 [DE]>[DE] | x8 | x8 | z2 F2 z4 | x8 | G2 z2 z4 | x8 | x8 | G2 z2 z4 | %13
w: ||||* * * our~|||||||||
 [CA]>[EA] [EA][EA] E-[EB][Ec][Ed] | x8 | x8 | x8 |] %17
w: ||||
V:3
 z4 z2 A,>A, | C2 C2 C2 E>D | C2 C2[K:bass] A,2 A,>B, | C2 E2[K:treble] E2 E2 | E4 B,2 G,>G, | %5
 A,2 C2 C2 E>D | C2 C2[K:bass] A,2 A,>B, | C2 A,[K:treble]D C2 B,2 | C6 A,>B, | C2 C>C C>C E>D | %10
 C2 C>D C2 D>C | B,2 B,2 B,2 B,2 | B,2[K:treble] C2 D2 CB, | A,>C CC[K:bass] A,G,A,B, | %14
 C>B, A,G, A,2 z2 | z2 z[K:treble] D C2 B,2 | C6 z2 |] %17
V:4
 z4 z2 A,,>A,, | A,,2 A,,2 A,,2 A,,>A,, | A,,2 A,,2 A,,2 z z/ A,/ | A,2 A,2 G,2 A,2 | E,6 E,>E, | %5
 B,,2 A,,2 A,,2 A,,>A,, | A,,2 A,,2 A,,2 z z/ A,/ | A,2 D,2 E,2 E,2 | [A,,A,]6 z2 | %9
 z2 A,>A, A,>A, z2 | z2 C,>B,, A,,2 E,>E, | E,2 E,2 B,,2 B,,2 | E,6 E,E, | %13
 A,,>A,, A,,A,, C,E, z A, | A,>A, z E, C,A,,C,D, | E,2 A,D, E,2 E,2 | [A,,A,]6 z2 |] %17

